!!!OTL: SINGE WEM GESANG GEGEBEN
!!!ARE: Europa, Mitteleuropa, Deutschland
!!!SCT: B0316
!!!YEM: Copyright 1995, estate of Helmut Schaffrath.
**kern
*ICvox
*Ivox
*M3/4
*k[f#]
*G:
=1
{8.b
16a
8g
8a
8b
8cc
=2
4dd
4b}
{8cc
8b
=3
8a
8b
4cc
4dd
=4
2b
4r}
=5
{8.b
16a
8g
8a
8b
8cc#
=6
4ee
4dd}
{8cc#
8b
=7
8a
8dd
4ee
4cc#
=8
2dd
4r}
=9
{8.cc
16b
8cc
8b
8a
8g
=10
8.b
16a
4a}
{8a
8a
=11
4.dd
8b
8cc
8b
=12
2cc
4r}
=13
{8.cc
16b
8a
8b
8cc
8cc#
=14
4dd
4b}
{8cc
8a
=15
8g
8b
4.dd
8f#
=16
2g
4r}
==
!!!AGN: Geselligkeits - Lied, Freude
!!!ONB: ESAC (Essen Associative Code) Database: BOEHME
!!!AMT: simple triple
!!!AIN: vox
!!!EED: Helmut Schaffrath
!!!EEV: 1.0
*-
